X:4933
T:Paddy Fahys reel (number 13)
O:england
M:4/4
L:1/8
C:Paddy Fahy
K:Gmix
A ||: _B2dB ~c2dc | BG~G2 DEFD | GABG c2dc | BGA^F DGGA |
(3Bcd Bd ~c2cd | BG~G2 DEFD | GABG ccdc |1 BGA^F G3A :|
|2 BGA^F G2 (3ABc || dgg^f dgBg | dgag ^fdcB | cef2 cfAf |
cfag fdcA | dg~g2 dgBg | dgag ^fdef | g2ag ^fage
|1 ^fdcA G2Bc :||2 ^fdcA G3 A ||


